packages/elvis-assets-icons/icons/svg/src/view_off.svg

<svg width="27" height="24" viewBox="0 0 27 24" fill="none" xmlns="http://www.w3.org/2000/svg">
<g clip-path="url(#clip0)">
<path d="M3.01584 21.75C2.79584 21.75 2.58233 21.666 2.42952 21.52C2.27888 21.375 2.19868 21.186 2.20302 20.985C2.20735 20.785 2.29622 20.598 2.45337 20.459L22.7739 2.459C22.9257 2.324 23.1261 2.25 23.3364 2.25C23.5564 2.25 23.7699 2.334 23.9227 2.481C24.0734 2.625 24.1536 2.815 24.1492 3.016C24.1449 3.216 24.056 3.403 23.9 3.542L3.5794 21.542C3.42659 21.676 3.22609 21.75 3.01584 21.75Z" fill="black"/>
<path d="M12.9919 20.25L12.8727 20.251C11.7369 20.251 10.5935 20.088 9.47291 19.768C9.04482 19.645 8.80531 19.224 8.93753 18.83C9.04374 18.514 9.35586 18.302 9.71459 18.302C9.79587 18.302 9.87715 18.313 9.95518 18.336C10.9176 18.612 11.906 18.752 12.8911 18.752L13.161 18.753C17.3367 18.753 21.5666 15.967 24.1341 13.36C24.4722 13.014 24.4722 12.489 24.1319 12.14C23.1663 11.162 22.0868 10.269 20.925 9.48698C20.7495 9.36898 20.6346 9.19498 20.601 8.99698C20.5674 8.79898 20.6194 8.60098 20.7473 8.43898C20.9001 8.24598 21.145 8.13098 21.4041 8.13098C21.5764 8.13098 21.7422 8.18098 21.8831 8.27498C23.1327 9.11598 24.2945 10.078 25.337 11.133C26.2387 12.056 26.2387 13.445 25.3403 14.366C22.5377 17.212 17.8677 20.252 13.162 20.252L12.9919 20.25Z" fill="black"/>
<path d="M4.09419 17.011C3.91428 17.011 3.73763 16.955 3.59566 16.853C2.55199 16.105 1.5701 15.269 0.677082 14.367C-0.224609 13.443 -0.225693 12.054 0.673831 11.133C3.47644 8.28802 8.14746 5.24902 12.851 5.24902L13.1078 5.25002C14.0247 5.25002 14.9362 5.35202 15.8173 5.55502C16.2518 5.65502 16.5174 6.06202 16.4101 6.46402C16.3201 6.79902 15.995 7.03302 15.6211 7.03302C15.555 7.03302 15.4889 7.02502 15.4238 7.01102C14.6717 6.83802 13.8957 6.75102 13.1165 6.75102H12.8683C8.68176 6.75102 4.44641 9.53602 1.87898 12.142C1.54084 12.488 1.54084 13.013 1.88114 13.362C2.70805 14.197 3.62167 14.975 4.5938 15.672C4.76504 15.795 4.8745 15.972 4.90159 16.171C4.92868 16.37 4.87016 16.566 4.73686 16.724C4.58188 16.905 4.34779 17.011 4.09419 17.011Z" fill="black"/>
<path d="M8.94078 13.5C8.49319 13.5 8.12796 13.164 8.12796 12.75C8.12796 11.55 8.63516 10.421 9.55636 9.57C10.4776 8.719 11.7011 8.25 13.0016 8.25C13.226 8.25 13.407 8.417 13.4081 8.624L13.4102 9.374C13.4102 9.474 13.368 9.569 13.2921 9.64C13.2162 9.711 13.1133 9.75 13.0049 9.75C12.1368 9.75 11.3207 10.063 10.7062 10.63C10.0917 11.197 9.7536 11.95 9.7536 12.75C9.7536 12.95 9.66907 13.138 9.51626 13.28C9.36237 13.422 9.15754 13.5 8.94078 13.5Z" fill="black"/>
<path d="M13.006 17.25C12.7816 17.25 12.5996 17.083 12.5996 16.875L12.5985 16.125C12.5985 16.026 12.6407 15.93 12.7177 15.86C12.7936 15.789 12.8976 15.75 13.0049 15.75C13.8741 15.75 14.6901 15.438 15.3046 14.871C15.918 14.304 16.2562 13.55 16.2562 12.749C16.2562 12.335 16.6203 11.999 17.069 11.999C17.5177 11.999 17.8818 12.335 17.8818 12.749C17.8818 13.951 17.3757 15.081 16.4545 15.931C15.5333 16.781 14.3087 17.25 13.006 17.25Z" fill="black"/>
</g>
<defs>
<clipPath id="clip0">
<path d="M0 0H26.0103V24H0V0Z" fill="white"/>
</clipPath>
</defs>
</svg>

<svg width="27" height="24" fill="none" xmlns="http://www.w3.org/2000/svg"><g clip-path="url(#clip0)" fill="#000"><path d="M3.016 21.75a.854.854 0 01-.586-.23.715.715 0 01-.227-.535.72.72 0 01.25-.526l20.32-18a.844.844 0 01.563-.209.85.85 0 01.587.231.713.713 0 01-.023 1.061l-20.32 18a.853.853 0 01-.564.208zM12.992 20.25l-.12.001c-1.135 0-2.278-.163-3.4-.483-.427-.123-.667-.544-.534-.938.106-.316.418-.528.777-.528.08 0 .162.011.24.034.963.276 1.951.416 2.936.416l.27.001c4.176 0 8.406-2.786 10.973-5.393a.859.859 0 00-.002-1.22 20.967 20.967 0 00-3.207-2.653.738.738 0 01-.324-.49.702.702 0 01.146-.558.86.86 0 011.136-.164 22.619 22.619 0 013.454 2.858c.902.923.902 2.312.003 3.233-2.802 2.846-7.472 5.886-12.178 5.886l-.17-.002zM4.094 17.011a.86.86 0 01-.498-.158 22.836 22.836 0 01-2.919-2.486c-.902-.924-.903-2.313-.003-3.234C3.476 8.288 8.147 5.249 12.85 5.249l.257.001c.917 0 1.828.102 2.71.305.434.1.7.507.592.909-.09.335-.415.569-.789.569a.94.94 0 01-.197-.022 10.305 10.305 0 00-2.307-.26h-.249c-4.186 0-8.422 2.785-10.989 5.391a.858.858 0 00.002 1.22c.827.835 1.74 1.613 2.713 2.31.171.123.28.3.308.499a.702.702 0 01-.165.553.842.842 0 01-.643.287z"/><path d="M8.94 13.5c-.447 0-.812-.336-.812-.75 0-1.2.507-2.329 1.428-3.18.922-.851 2.145-1.32 3.446-1.32.224 0 .405.167.406.374l.002.75c0 .1-.042.195-.118.266a.42.42 0 01-.287.11c-.868 0-1.684.313-2.299.88-.614.567-.952 1.32-.952 2.12a.72.72 0 01-.238.53.845.845 0 01-.575.22zM13.006 17.25c-.224 0-.406-.167-.406-.375l-.002-.75c0-.099.043-.195.12-.265a.421.421 0 01.287-.11c.87 0 1.685-.312 2.3-.879.613-.567.951-1.321.951-2.122 0-.414.364-.75.813-.75.449 0 .813.336.813.75 0 1.202-.506 2.332-1.428 3.182-.92.85-2.145 1.319-3.448 1.319z"/></g><defs><clipPath id="clip0"><path d="M0 0h26.01v24H0V0z" fill="#fff"/></clipPath></defs></svg>
